src/cmd/sc_underline.svg

<svg viewBox="0 0 16 16" xmlns="http://www.w3.org/2000/svg">/&gt;<path d="m4 2v3 1 4c0 1.65685 1.567 3 3.5 3s3.5-1.34315 3.5-3v-5-3h-1v3 2.90625 2.09375c0 1.10457-.89543 2-2 2s-2-.89543-2-2v-2.6875-1.3125-1-3zm-2 13v1h12v-1z" fill="#232629"/></svg>

<?xml version="1.0" encoding="UTF-8" standalone="no"?>
<svg
   xmlns:dc="http://purl.org/dc/elements/1.1/"
   xmlns:cc="http://creativecommons.org/ns#"
   xmlns:rdf="http://www.w3.org/1999/02/22-rdf-syntax-ns#"
   xmlns:svg="http://www.w3.org/2000/svg"
   xmlns="http://www.w3.org/2000/svg"
   xmlns:sodipodi="http://sodipodi.sourceforge.net/DTD/sodipodi-0.dtd"
   xmlns:inkscape="http://www.inkscape.org/namespaces/inkscape"
   viewBox="0 0 16 16"
   version="1.1"
   id="svg4"
   sodipodi:docname="sc_underline.svg"
   inkscape:version="0.92.4 (5da689c313, 2019-01-14)"
   inkscape:export-filename="/home/jupiter007/Libreoffice yaru theme fullcolor/build/cmd/sc_underline.png"
   inkscape:export-xdpi="96"
   inkscape:export-ydpi="96"><metadata
   id="metadata10">
  <rdf:RDF>
    <cc:Work
       rdf:about="">
      <dc:format>image/svg+xml</dc:format>
      <dc:type
         rdf:resource="http://purl.org/dc/dcmitype/StillImage" />
    </cc:Work>
  </rdf:RDF>
</metadata>
<defs
   id="defs8" />
<sodipodi:namedview
   pagecolor="#ffffff"
   bordercolor="#666666"
   borderopacity="1"
   objecttolerance="10"
   gridtolerance="10"
   guidetolerance="10"
   inkscape:pageopacity="0"
   inkscape:pageshadow="2"
   inkscape:window-width="1920"
   inkscape:window-height="1011"
   id="namedview6"
   showgrid="true"
   inkscape:zoom="29.5"
   inkscape:cx="4.3905569"
   inkscape:cy="3.5226013"
   inkscape:window-x="0"
   inkscape:window-y="32"
   inkscape:window-maximized="1"
   inkscape:current-layer="svg4">
  <inkscape:grid
     type="xygrid"
     id="grid819" />
</sodipodi:namedview>
/&gt;<path
   style="fill:#ffffff;fill-opacity:1;stroke:#ffffff;stroke-width:2;stroke-linejoin:round;stroke-miterlimit:4;stroke-dasharray:none;stroke-opacity:1"
   id="path817"
   d="m 4,2 v 3 1 4 c 0,1.65685 1.567,3 3.5,3 1.933,0 3.5,-1.34315 3.5,-3 V 5 2 H 10 V 5 7.90625 10 C 10,11.10457 9.10457,12 8,12 6.89543,12 6,11.10457 6,10 V 7.3125 6 5 2 Z M 2,14 v 1 h 12 v -1 z"
   inkscape:connector-curvature="0"
   sodipodi:nodetypes="cccssscccccssscccccccccc" />
<path
   d="m 4,2 v 3 1 4 c 0,1.65685 1.567,3 3.5,3 1.933,0 3.5,-1.34315 3.5,-3 V 5 2 H 10 V 5 7.90625 10 C 10,11.10457 9.10457,12 8,12 6.89543,12 6,11.10457 6,10 V 7.3125 6 5 2 Z M 2,14 v 1 h 12 v -1 z"
   id="path2"
   style="fill:#808080;fill-opacity:1"
   inkscape:connector-curvature="0"
   sodipodi:nodetypes="cccssscccccssscccccccccc" />
</svg>
